package/windows.svg

<svg height="48" viewBox="0 0 48 48" width="48" xmlns="http://www.w3.org/2000/svg" xmlns:xlink="http://www.w3.org/1999/xlink"><linearGradient id="a" gradientUnits="userSpaceOnUse" x1="16" x2="48" y1="0" y2="64"><stop offset="0" stop-color="#4d4d4d"/><stop offset="1" stop-color="#1a1a1a"/></linearGradient><filter id="b" color-interpolation-filters="sRGB" height="1.380203" width="1.236675" x="-.105906" y="-.157346"><feFlood in="SourceGraphic" result="flood"/><feGaussianBlur in="SourceGraphic" result="blur" stdDeviation="2"/><feOffset dx="1" dy="2" in="blur" result="offset"/><feComposite in="flood" in2="offset" operator="in" result="comp1"/><feComposite in="comp1" in2="comp1" operator="atop" result="comp2"/></filter><g transform="matrix(.625 0 0 .625 4 4)"><path d="m4 0h56a4 4 45 0 1 4 4v56a4 4 135 0 1 -4 4h-56a4 4 45 0 1 -4-4v-56a4 4 135 0 1 4-4z" fill="url(#a)" height="64" width="64"/><g stroke-linejoin="round" stroke-width="2"><g fill="none" filter="url(#b)" stroke="#000"><path d="m6 38 20 20z"/><path d="m26 58h12l20-20v-12" stroke-linecap="round"/><path d="m32 23-9 9z"/></g><g fill="#000" stroke="#f9f9f9"><path d="m6 26h11l21-20h-12z"/><path d="m6 26v12l20 20v-11z"/><path d="m6 26h11l15 15-6 6z"/><path d="m26 58h12l20-20h-11z"/><path d="m58 38v-12l-20-20v11z"/><path d="m38 6v11l-15 15-6-6z"/><path d="m26 58v-11l15-15 6 6z"/><path d="m58 38h-11l-15-15 6-6z"/></g></g></g></svg>

<?xml version="1.0" encoding="UTF-8" standalone="no"?>
<!-- Created with Inkscape (http://www.inkscape.org/) -->

<svg
   width="48"
   height="48"
   viewBox="0 0 48 48"
   version="1.1"
   id="svg1"
   inkscape:version="1.4.3 (0d15f75, 2025-12-25)"
   sodipodi:docname="windows.svg"
   xmlns:inkscape="http://www.inkscape.org/namespaces/inkscape"
   xmlns:sodipodi="http://sodipodi.sourceforge.net/DTD/sodipodi-0.dtd"
   xmlns:xlink="http://www.w3.org/1999/xlink"
   xmlns="http://www.w3.org/2000/svg"
   xmlns:svg="http://www.w3.org/2000/svg">
  <sodipodi:namedview
     id="namedview1"
     pagecolor="#ffffff"
     bordercolor="#000000"
     borderopacity="0.25"
     inkscape:showpageshadow="2"
     inkscape:pageopacity="0.0"
     inkscape:pagecheckerboard="0"
     inkscape:deskcolor="#d1d1d1"
     inkscape:document-units="px"
     showgrid="true"
     inkscape:zoom="20.995316"
     inkscape:cx="23.005132"
     inkscape:cy="23.910095"
     inkscape:window-width="1728"
     inkscape:window-height="1051"
     inkscape:window-x="0"
     inkscape:window-y="38"
     inkscape:window-maximized="0"
     inkscape:current-layer="layer1">
    <inkscape:grid
       id="grid1"
       units="px"
       originx="0"
       originy="0"
       spacingx="1"
       spacingy="1"
       empcolor="#0099e5"
       empopacity="0.30196078"
       color="#0099e5"
       opacity="0.14901961"
       empspacing="8"
       dotted="false"
       gridanglex="30"
       gridanglez="30"
       visible="true" />
  </sodipodi:namedview>
  <defs
     id="defs1">
    <linearGradient
       id="linearGradient1"
       inkscape:collect="always">
      <stop
         style="stop-color:#4d4d4d;stop-opacity:1"
         offset="0"
         id="stop1" />
      <stop
         style="stop-color:#1a1a1a;stop-opacity:1"
         offset="1"
         id="stop2" />
    </linearGradient>
    <inkscape:path-effect
       effect="fillet_chamfer"
       id="path-effect1"
       is_visible="true"
       lpeversion="1"
       nodesatellites_param="F,0,0,1,0,4,0,1 @ F,0,0,1,0,4,0,1 @ F,0,0,1,0,4,0,1 @ F,0,0,1,0,4,0,1"
       radius="4"
       unit="px"
       method="auto"
       mode="F"
       chamfer_steps="1"
       flexible="false"
       use_knot_distance="true"
       apply_no_radius="true"
       apply_with_radius="true"
       only_selected="false"
       hide_knots="false" />
    <linearGradient
       inkscape:collect="always"
       xlink:href="#linearGradient1"
       id="linearGradient2"
       x1="16"
       y1="0"
       x2="48"
       y2="64"
       gradientUnits="userSpaceOnUse" />
    <filter
       style="color-interpolation-filters:sRGB;"
       inkscape:label="Drop Shadow"
       id="filter61"
       x="-0.1059059"
       y="-0.15734591"
       width="1.2366751"
       height="1.3802031">
      <feFlood
         result="flood"
         in="SourceGraphic"
         flood-opacity="1.000000"
         flood-color="rgb(0,0,0)"
         id="feFlood60" />
      <feGaussianBlur
         result="blur"
         in="SourceGraphic"
         stdDeviation="2.000000"
         id="feGaussianBlur60" />
      <feOffset
         result="offset"
         in="blur"
         dx="1.000000"
         dy="2.000000"
         id="feOffset60" />
      <feComposite
         result="comp1"
         operator="in"
         in="flood"
         in2="offset"
         id="feComposite60" />
      <feComposite
         result="comp2"
         operator="atop"
         in="comp1"
         in2="comp1"
         id="feComposite61" />
    </filter>
  </defs>
  <g
     inkscape:label="Layer 1"
     inkscape:groupmode="layer"
     id="layer1">
    <path
       style="fill:url(#linearGradient2);fill-opacity:1;stroke:none;stroke-width:40;stroke-dashoffset:2313.07"
       id="rect1"
       width="64"
       height="64"
       x="0"
       y="0"
       sodipodi:type="rect"
       d="m 4,0 h 56 a 4,4 45 0 1 4,4 v 56 a 4,4 135 0 1 -4,4 H 4 A 4,4 45 0 1 0,60 V 4 A 4,4 135 0 1 4,0 Z"
       inkscape:path-effect="#path-effect1"
       transform="matrix(0.625,0,0,0.625,4,4)"
       inkscape:label="background" />
    <g
       id="g2-8"
       inkscape:label="shadow"
       style="display:inline;filter:url(#filter61)"
       transform="matrix(0.625,0,0,0.625,4,4)">
      <path
         style="display:inline;fill:none;fill-opacity:1;stroke:#000000;stroke-width:2;stroke-linecap:butt;stroke-linejoin:round;stroke-dasharray:none;stroke-dashoffset:0;stroke-opacity:1"
         d="M 6,38 26,58 Z"
         id="path21-6"
         sodipodi:nodetypes="ccc" />
      <path
         style="display:inline;fill:none;fill-opacity:1;stroke:#000000;stroke-width:2;stroke-linecap:round;stroke-linejoin:round;stroke-dasharray:none;stroke-dashoffset:0;stroke-opacity:1"
         d="M 26,58 H 38 L 58,38 V 26"
         id="path24-1"
         sodipodi:nodetypes="ccc" />
      <path
         style="fill:none;fill-opacity:1;stroke:#000000;stroke-width:2;stroke-linecap:butt;stroke-linejoin:round;stroke-dasharray:none;stroke-dashoffset:0;stroke-opacity:1"
         d="m 32,23 -9,9 z"
         id="path20-2"
         sodipodi:nodetypes="ccc" />
    </g>
    <g
       id="g2"
       style="display:inline;fill:#1a1a1a;stroke:#f9f9f9"
       transform="matrix(0.625,0,0,0.625,4,4)"
       inkscape:label="icon">
      <path
         style="fill:#000000;fill-opacity:1;stroke:#f9f9f9;stroke-width:2;stroke-linecap:butt;stroke-linejoin:round;stroke-dasharray:none;stroke-dashoffset:0;stroke-opacity:1"
         d="M 6,26 H 17 L 38,6 H 26 Z"
         id="path19"
         sodipodi:nodetypes="ccccc" />
      <path
         style="fill:#000000;fill-opacity:1;stroke:#f9f9f9;stroke-width:2;stroke-linecap:butt;stroke-linejoin:round;stroke-dasharray:none;stroke-dashoffset:0;stroke-opacity:1"
         d="M 6,26 V 38 L 26,58 V 47 Z"
         id="path21"
         sodipodi:nodetypes="ccccc" />
      <path
         style="fill:#000000;fill-opacity:1;stroke:#f9f9f9;stroke-width:2;stroke-linecap:butt;stroke-linejoin:round;stroke-dasharray:none;stroke-dashoffset:0;stroke-opacity:1"
         d="m 6,26 h 11 l 15,15 -6,6 z"
         id="path22"
         sodipodi:nodetypes="ccccc" />
      <path
         style="fill:#000000;fill-opacity:1;stroke:#f9f9f9;stroke-width:2;stroke-linecap:butt;stroke-linejoin:round;stroke-dasharray:none;stroke-dashoffset:0;stroke-opacity:1"
         d="M 26,58 H 38 L 58,38 H 47 Z"
         id="path24"
         sodipodi:nodetypes="ccccc" />
      <path
         style="fill:#000000;fill-opacity:1;stroke:#f9f9f9;stroke-width:2;stroke-linecap:butt;stroke-linejoin:round;stroke-dasharray:none;stroke-dashoffset:0;stroke-opacity:1"
         d="M 58,38 V 26 L 38,6 v 11 z"
         id="path25"
         sodipodi:nodetypes="ccccc" />
      <path
         style="fill:#000000;fill-opacity:1;stroke:#f9f9f9;stroke-width:2;stroke-linecap:butt;stroke-linejoin:round;stroke-dasharray:none;stroke-dashoffset:0;stroke-opacity:1"
         d="M 38,6 V 17 L 23,32 17,26 Z"
         id="path20"
         sodipodi:nodetypes="ccccc" />
      <path
         style="fill:#000000;fill-opacity:1;stroke:#f9f9f9;stroke-width:2;stroke-linecap:butt;stroke-linejoin:round;stroke-dasharray:none;stroke-dashoffset:0;stroke-opacity:1"
         d="M 26,58 V 47 l 15,-15 6,6 z"
         id="path23"
         sodipodi:nodetypes="ccccc" />
      <path
         style="fill:#000000;fill-opacity:1;stroke:#f9f9f9;stroke-width:2;stroke-linecap:butt;stroke-linejoin:round;stroke-dasharray:none;stroke-dashoffset:0;stroke-opacity:1"
         d="M 58,38 H 47 L 32,23 38,17 Z"
         id="path26"
         sodipodi:nodetypes="ccccc" />
    </g>
  </g>
</svg>
